img/image/catalogue-value3.svg

<svg width="19" height="16" viewBox="0 0 19 16" fill="none" xmlns="http://www.w3.org/2000/svg">
<g opacity="0.6">
<path d="M4.41873 1.19883C8.64997 1.91747 12.8812 1.69323 17.1125 0.526099C17.5649 0.401363 18.0124 0.739279 18.0124 1.20863V12.4962C18.0124 12.9656 17.5649 13.3035 17.1125 13.1787C16.8042 13.0938 16.4962 13.0138 16.1879 12.9388C15.0984 12.6738 14.0092 12.4712 12.9197 12.331M5.59269 12.331C4.50319 12.4712 3.41403 12.6738 2.32453 12.9388C2.01621 13.0138 1.70825 13.0938 1.39993 13.1787C0.947494 13.3035 0.499993 12.9656 0.499993 12.4962V1.20863C0.499993 0.739279 0.947494 0.401363 1.39993 0.526099C1.99617 0.690707 2.59719 0.837473 3.20219 0.9662" stroke="#D9D9D9" stroke-width="0.5" stroke-miterlimit="10" stroke-linecap="round" stroke-linejoin="round"/>
<path d="M9.25619 8.09631C11.3007 8.09631 12.9581 9.75372 12.9581 11.7982C12.9581 13.8428 11.3007 15.5002 9.25619 15.5002C7.21168 15.5002 5.55427 13.8428 5.55427 11.7982C5.55427 9.75372 7.21168 8.09631 9.25619 8.09631ZM9.25619 9.04769C7.90182 9.04769 6.77376 10.0319 6.54769 11.3225H8.23131C8.43508 11.0965 8.81799 11.0541 9.25619 11.0541C9.69439 11.0541 10.0773 11.0965 10.2811 11.3225H11.9647C11.7386 10.0319 10.6106 9.04769 9.25619 9.04769ZM11.9647 12.2739H10.3366C10.2171 12.5436 10.0015 12.7591 9.73188 12.8786V14.5067C10.8678 14.3078 11.7657 13.4099 11.9647 12.2739ZM8.7805 14.5067V12.8786C8.51084 12.7591 8.29529 12.5436 8.17581 12.2739H6.54769C6.74666 13.4099 7.64456 14.3078 8.7805 14.5067Z" stroke="#D9D9D9" stroke-width="0.5" stroke-miterlimit="10" stroke-linecap="round" stroke-linejoin="round"/>
<path d="M14.4225 9.68738L11.0861 3.54214C10.9906 3.36666 10.8066 3.25708 10.6068 3.25708H7.90563C7.70584 3.25708 7.5219 3.36666 7.42641 3.54214L2.32455 12.939M16.1879 12.939L15.0139 10.7766M9.25623 3.25712V4.07858M9.25623 5.4208V6.88381" stroke="#D9D9D9" stroke-width="0.5" stroke-miterlimit="10" stroke-linecap="round" stroke-linejoin="round"/>
</g>
</svg>

<svg width="19" height="16" fill="none" xmlns="http://www.w3.org/2000/svg"><g opacity=".6" stroke="#D9D9D9" stroke-width=".5" stroke-miterlimit="10" stroke-linecap="round" stroke-linejoin="round"><path d="M4.419 1.199c4.231.718 8.462.494 12.694-.673a.71.71 0 0 1 .9.683v11.287a.71.71 0 0 1-.9.683 30.044 30.044 0 0 0-4.193-.848m-7.327 0a30.043 30.043 0 0 0-4.193.848.71.71 0 0 1-.9-.683V1.21a.71.71 0 0 1 .9-.683 31.07 31.07 0 0 0 1.802.44"/><path d="M9.256 8.096a3.702 3.702 0 1 1 0 7.404 3.702 3.702 0 0 1 0-7.404Zm0 .952a2.754 2.754 0 0 0-2.708 2.274H8.23c.204-.225.587-.268 1.025-.268.438 0 .821.043 1.025.268h1.684a2.754 2.754 0 0 0-2.709-2.274Zm2.709 3.226h-1.628c-.12.27-.335.485-.605.605v1.628a2.757 2.757 0 0 0 2.233-2.233ZM8.78 14.507v-1.628a1.188 1.188 0 0 1-.605-.605H6.548a2.757 2.757 0 0 0 2.232 2.233Z"/><path d="m14.422 9.687-3.336-6.145a.546.546 0 0 0-.48-.285h-2.7c-.2 0-.384.11-.48.285L2.325 12.94m13.863 0-1.174-2.162m-5.758-7.52v.822m0 1.342v1.463"/></g></svg>
